img/icons/3.svg

<svg width="85" height="88" viewBox="0 0 85 88" fill="none" xmlns="http://www.w3.org/2000/svg">
<path d="M29.0879 41.7211L34.7374 38.6953L32.2107 32.7336C33.0695 31.9198 33.8337 30.9924 34.4771 29.968L40.8174 31.2715L42.6721 25.1371L36.6702 22.7075C36.7033 21.4962 36.5803 20.3015 36.3153 19.147L41.7211 15.5842L38.6953 9.93476L32.7336 12.4614C31.9198 11.6026 30.9924 10.8385 29.968 10.195L31.2715 3.85476L25.1371 2L22.7075 7.99957C21.4962 7.96645 20.3015 8.08947 19.147 8.35443L15.5866 2.94867L9.93712 5.97448L12.4614 11.9338C11.6003 12.7476 10.8361 13.675 10.1926 14.7018L3.85476 13.3982L2 19.5326L7.99957 21.9599C7.96645 23.1712 8.08947 24.3659 8.35443 25.5227L2.95104 29.0832L5.97684 34.7327L11.9362 32.2084C12.75 33.0695 13.6798 33.8313 14.7041 34.4771L13.4006 40.815L19.535 42.6698L21.9646 36.6702C23.1759 36.701 24.3706 36.5803 25.5251 36.3153L29.0856 41.7211H29.0879Z" stroke="#FFB800" stroke-width="3" stroke-linecap="round" stroke-linejoin="round"/>
<path d="M23.9495 17.0109C20.6847 16.0243 18.0019 17.4604 17.0131 20.7251C16.0265 23.9899 17.4625 26.675 20.7273 27.6615C23.992 28.648 26.6772 27.212 27.6637 23.9473C28.6502 20.6825 27.2142 17.9974 23.9495 17.0109Z" stroke="#FFB800" stroke-width="3" stroke-linecap="round" stroke-linejoin="round"/>
<path d="M65.362 84.6435L72.7313 80.6974L69.4358 72.9211C70.5572 71.8589 71.5532 70.65 72.393 69.3133L80.6637 71.0143L83.0839 63.0133L75.2556 59.8456C75.2982 58.2676 75.1397 56.7086 74.7943 55.204L81.8466 50.5576L77.9005 43.1883L70.1243 46.4838C69.062 45.3624 67.8531 44.3664 66.5165 43.5266L68.2175 35.2559L60.2164 32.8357L57.0487 40.6616C55.4707 40.619 53.9093 40.7775 52.4047 41.123L47.7607 34.073L40.3914 38.0191L43.6845 45.793C42.5631 46.8552 41.5672 48.0641 40.7273 49.4031L32.459 47.7021L30.0388 55.7031L37.8624 58.8709C37.8198 60.4512 37.9783 62.0102 38.3237 63.5172L31.2761 68.1612L35.2222 75.5306L42.9961 72.2374C44.0583 73.3588 45.2696 74.3548 46.6062 75.1946L44.9053 83.463L52.9063 85.8831L56.074 78.0572C57.652 78.0974 59.211 77.9389 60.718 77.5935L65.362 84.6435Z" stroke="#FFB800" stroke-width="3" stroke-linecap="round" stroke-linejoin="round"/>
<path d="M59.4122 49.928C54.2028 48.3525 48.7024 51.2978 47.1268 56.5072C45.5512 61.7166 48.4966 67.217 53.706 68.7926C58.9154 70.3682 64.4157 67.4228 65.9913 62.2134C67.5669 57.004 64.6216 51.5036 59.4122 49.928Z" stroke="#FFB800" stroke-width="3" stroke-linecap="round" stroke-linejoin="round"/>
</svg>

<svg width="85" height="88" fill="none" xmlns="http://www.w3.org/2000/svg"><path d="m29.088 41.721 5.65-3.026-2.527-5.961a14.257 14.257 0 0 0 2.266-2.766l6.34 1.303 1.855-6.134-6.002-2.43a14.175 14.175 0 0 0-.355-3.56l5.406-3.563-3.026-5.65-5.961 2.527a14.26 14.26 0 0 0-2.766-2.266l1.303-6.34L25.137 2l-2.43 6a14.176 14.176 0 0 0-3.56.354l-3.56-5.405-5.65 3.025 2.524 5.96a14.133 14.133 0 0 0-2.268 2.768l-6.338-1.304L2 19.533l6 2.427c-.034 1.211.09 2.406.354 3.563l-5.403 3.56 3.026 5.65 5.96-2.525a14.29 14.29 0 0 0 2.767 2.27l-1.303 6.337 6.134 1.855 2.43-6c1.21.031 2.406-.09 3.56-.355l3.56 5.406h.003Z" stroke="#FFB800" stroke-width="3" stroke-linecap="round" stroke-linejoin="round"/><path d="M23.95 17.01c-3.265-.986-5.948.45-6.937 3.715-.987 3.265.45 5.95 3.714 6.936 3.265.987 5.95-.449 6.937-3.714.986-3.264-.45-5.95-3.715-6.936Zm41.412 67.634 7.37-3.947-3.296-7.776a18.587 18.587 0 0 0 2.957-3.608l8.27 1.701 2.42-8-7.827-3.168a18.51 18.51 0 0 0-.462-4.642l7.053-4.646-3.947-7.37-7.776 3.296a18.593 18.593 0 0 0-3.608-2.957l1.701-8.271-8-2.42-3.168 7.826a18.525 18.525 0 0 0-4.644.461l-4.644-7.05-7.37 3.946 3.294 7.774a18.537 18.537 0 0 0-2.958 3.61l-8.268-1.7-2.42 8 7.823 3.168c-.042 1.58.116 3.14.462 4.646l-7.048 4.644 3.946 7.37 7.774-3.294a18.604 18.604 0 0 0 3.61 2.958l-1.7 8.268 8 2.42 3.168-7.826c1.578.04 3.137-.118 4.644-.463l4.644 7.05Z" stroke="#FFB800" stroke-width="3" stroke-linecap="round" stroke-linejoin="round"/><path d="M59.412 49.928c-5.21-1.575-10.71 1.37-12.285 6.58-1.576 5.209 1.37 10.709 6.579 12.285 5.21 1.575 10.71-1.37 12.285-6.58 1.576-5.209-1.37-10.71-6.579-12.285Z" stroke="#FFB800" stroke-width="3" stroke-linecap="round" stroke-linejoin="round"/></svg>
